X:15646
T:Smith's Reel                                                     Page 2
M:4/4
L:1/8
Q:180
S:Joey McKensie Transcribed from a Weiser jam tape 1997  LL.B.
K:D
"B"dcBd BABc|dBAF EFDB,|A,B,DE FAde|fafd eafe|!
dcBd BABc|dBAF EFDB,|A,B,DE FAde|fafd eafe||!
dcBd BABc|dBAF EFDB,|A,B,DE FAde|fafd eafe|!
dcBd BABc|dBAF EFDB,|A,B,DE FAde|fdec d2 f/2a/2||!
"3rd Position"aead' bafe|"1st Position"defd edBd|A/2B/2c/2 d2 fede f. |A
/2B/2c/2 dfed e2|!
"3rd Position"aead' bafe|"1st Position"defd edBd|AFAd Bcde|fdec d4 f/2a/
2|!
"3rd Position"aead' bafe|"1st Position"defd edBd|A/2B/2c/2d2fede f. |A/2
B/2c/2 dfed e2|!
"3rd Position"aead' bafe|"1st Position"defd edBd|AFAd Bcde|fdec d4 ||

